!!!COM: Music21
!!!OTL: mazurka_Host-Of-The-Air
!!!OMV: mazurka_Host-Of-The-Air
**kern
*clefG2
*k[f#c#]
*D:
*M3/4
=1
8a
=
2ff#
8ff#L
16eeL
16ff#JJ
=
2gg
8ggL
8aaJ
=
8.aaL
16ggJk
8.ff#L
16eeJk
16ff#KL
8.ddJ
=
4dd
8.eeL
16ddJk
16cc#KL
8.aJ
=
4a
8.aL
16bJk
16cc#KL
8.aJ
=
8ddL
8eeJ
16ff#KL
8.ddJ
8.eeL
16ddJk
!!linebreak:original
=
16cc#KL
8.aJ
4a
8.gL
16bJk
=
2a
4a
=
2ff#
8ff#L
16eeL
16ff#JJ
=
2gg
8ggL
8aaJ
=
8aaL
8ggJ
8ff#L
8eeJ
16ff#KL
8.ddJ
=
4dd
8.eeL
16ddJk
16cc#KL
8.aJ
=
4a
8.gL
16aJk
16f#KL
8.dJ
=
4d
8.ccnL
16ddJk
4a
!!linebreak:original
=
4a
8.gL
16eJk
16f#KL
8.dJ
=
2.d
=||
2g
8gL
8aJ
=
8bL
8gJ
2a
=
8.aL
16bJk
16cc#KL
8.aJ
4dd
=
8ddL
8eeJ
16ff#KL
8.ddJ
8.eeL
16ddJk
=
16cc#KL
8.aJ
4a
8.gL
16bJk
=
2a
4a
!!linebreak:original
=
2ff#
8ff#L
16eeL
16ff#JJ
=
2gg
8ggL
8aaJ
=
8aaL
8ggJ
8ff#L
8eeJ
16ff#KL
8.ddJ
=
4dd
8.eeL
16ddJk
16cc#KL
8.aJ
=
4a
8.gL
16aJk
16f#KL
8.dJ
=
4d
8.ccnL
16ddJk
4a
=
4a
8gL
8eJ
16f#KL
8.dJ
=
2.d
!!linebreak:original
=
2.d
=
2.d
=||
*-
